X: 38
T: D'ung aultre amer
N: Derived from Ort3001-Dung_aultre_amer.krn
C: Marbrianus de Orto
%%abc-version 2.0
%%abcx-abcm2ps-target-version 5.9.1 (29 Sep 2008)
%%abc-creator hum2abc beta
%%abcx-conversion-date 2019/02/17 07:28:38
%%abc-edited-by Jesse Rodin
%%abc-edited-by Jesse Rodin 8/6/2013
%%abcx-initial-encoding-date 2013/08/06/
%%humdrum-veritas 2755213483
%%humdrum-veritas-data 3509669355
%%linebreak <none>
%%barnumbers 0
L: 1/4
M: 2/1
Q: 1/2=120
%%staves [1 2 3 4]
V: 1 clef=treble
V: 2 clef=treble-8
V: 3 clef=treble-8
V: 4 clef=bass
K: F
[V:1] G8 | 
[V:2] z2c2B2AG | 
[V:3] G4d4- | 
[V:4] C,4G,,4 | 
[V:1] A4G4 | 
[V:2] F4G4 | 
[V:3] d2c2B4- | 
[V:4] D,4G,,4 | 
[V:1] d6cB | 
[V:2] z2g2f2ed | 
[V:3] B2AGA4 | 
[V:4] G,4D,4 | 
[V:1] A4A4 | 
[V:2] c4d4 | 
[V:3] z4F3D | 
[V:4] A,4D,4 | 
[V:1] A4d4- | 
[V:2] z2d3cBA | 
[V:3] FGA2B2d2- | 
[V:4] D,3C,B,,A,,G,,2 | 
[V:1] d4c4 | 
[V:2] G2G4^F2 | 
[V:3] d2cBA4 | 
[V:4] B,,2G,,2z4 | 
[V:1] B2B4AG | 
[V:2] G4z4 | 
[V:3] G6FE | 
[V:4] z8 | 
[V:1] F8 | 
[V:2] z2a3gfe | 
[V:3] D4z2A2- | 
[V:4] A,3G,F,E,D,2 | 
[V:1] z4F4 | 
[V:2] d2d4c2 | 
[V:3] A2B2A4 | 
[V:4] F,2D,2z4 | 
[V:1] G4B4 | 
[V:2] d4z4 | 
[V:3] G4G4 | 
[V:4] z8 | 
[V:1] A8 | 
[V:2] A4d4 | 
[V:3] ^F8 | 
[V:4] D,8 | 
[V:1] G6F2 | 
[V:2] B3cd4 | 
[V:3] G8 | 
[V:4] G,,8 | 
[V:1] E2D2D4- | 
[V:2] e4a4 | 
[V:3] C4D4 | 
[V:4] A,8 | 
[V:1] D8 | 
[V:2] f3ga4 | 
[V:3] A6GF | 
[V:4] D,8 | 
[V:1] D4E4- | 
[V:2] z2G3FED | 
[V:3] B4G4 | 
[V:4] G,,8 | 
[V:1] E2D2E4 | 
[V:2] C4C4 | 
[V:3] c8 | 
[V:4] A,,8 | 
[V:1] F4D4- | 
[V:2] z2d3cBA | 
[V:3] A8 | 
[V:4] D,8 | 
[V:1] D4^C4 | 
[V:2] G4G4 | 
[V:3] z8 | 
[V:4] E,8 | 
[V:1] D8- | 
[V:2] z2B4G2 | 
[V:3] ^F4G2B2- | 
[V:4] D,4G,4- | 
[V:1] D8 | 
[V:2] G4A4 | 
[V:3] Bcdef4 | 
[V:4] G,2F,E,D,4 | 
[V:1] z8 | 
[V:2] A4z2f2- | 
[V:3] d4c4 | 
[V:4] D,4A,4 | 
[V:1] B8 | 
[V:2] f2d2d4 | 
[V:3] B4z4 | 
[V:4] D6CB, | 
[V:1] c4c4 | 
[V:2] e4e4 | 
[V:3] z4z2A2 | 
[V:4] A,4A,4 | 
[V:1] d8 | 
[V:2] z2d4cB | 
[V:3] B2A2F2G2 | 
[V:4] D,6E,2 | 
[V:1] d4d4 | 
[V:2] A4d4 | 
[V:3] D4z4 | 
[V:4] F,4G,4 | 
[V:1] c2c4BA | 
[V:2] z2a4gf | 
[V:3] F4F4 | 
[V:4] A,6B,2 | 
[V:1] G4F4- | 
[V:2] e4a4 | 
[V:3] C2E2D4 | 
[V:4] C4D4 | 
[V:1] F2EDC4 | 
[V:2] A4G4- | 
[V:3] z2F2G3A | 
[V:4] D,4_E,4 | 
[V:1] D6B,2 | 
[V:2] G4F4- | 
[V:3] B3cdef2- | 
[V:4] z4B,,4- | 
[V:1] B,4C4 | 
[V:2] F4e4 | 
[V:3] f2d2c4 | 
[V:4] B,,4A,4 | 
[V:1] B,4B4- | 
[V:2] d8 | 
[V:3] f8- | 
[V:4] B,4z4 | 
[V:1] B2AGA4 | 
[V:2] c8 | 
[V:3] f8 | 
[V:4] F,8 | 
[V:1] B8 | 
[V:2] z2B3AF2- | 
[V:3] d8 | 
[V:4] B,,8 | 
[V:1] z8 | 
[V:2] FGA3Bc2 | 
[V:3] c8 | 
[V:4] A,,8 | 
[V:1] B8 | 
[V:2] F4B4 | 
[V:3] B4d4 | 
[V:4] B,,8 | 
[V:1] A4A4 | 
[V:2] z2f3ec2- | 
[V:3] c8 | 
[V:4] F,8 | 
[V:1] G2c4B2 | 
[V:2] cde3fg2 | 
[V:3] z4G4 | 
[V:4] E,8 | 
[V:1] A2G2A4 | 
[V:2] c4f4 | 
[V:3] A2B2c4 | 
[V:4] F,8 | 
[V:1] B4G4 | 
[V:2] z2d2c2A2 | 
[V:3] B4z4 | 
[V:4] B,,4C,4 | 
[V:1] d4c2c2- | 
[V:2] B2F2z2a2 | 
[V:3] f4f4 | 
[V:4] B,,4F,4 | 
[V:1] c2B2A2G2 | 
[V:2] g2e2f2c2 | 
[V:3] z2B2c3B/A/ | 
[V:4] G,4F,4 | 
[V:1] B4G2A2- | 
[V:2] z2d2B2cB | 
[V:3] G2F2G2E2 | 
[V:4] G,2D,2_E,2C,2 | 
[V:1] AGFEF2E2 | 
[V:2] AGF2z2a2 | 
[V:3] F2D4C2 | 
[V:4] D,4D2A,2 | 
[V:1] D2G4^F2 | 
[V:2] f2gfedc2 | 
[V:3] B,2z2z4 | 
[V:4] B,2G,2A,4 | 
[V:1] G8 |]  
[V:2] d8 |]  
[V:3] G,8 |]  
[V:4] G,8 |]  



